img/close.svg

<svg fill="none" height="17" viewBox="0 0 16 17" width="16" xmlns="http://www.w3.org/2000/svg"><path clip-rule="evenodd" d="m7.99609 7.62149-4.68808-4.68809c-.24152-.24152-.6331-.24152-.87461 0-.24152.24151-.24152.63309 0 .87461l4.68809 4.68808-4.68809 4.68811c-.24152.2415-.24152.6331 0 .8746.24151.2415.63309.2415.87461 0l4.68808-4.6881 4.68811 4.6881c.2415.2415.6331.2415.8746 0s.2415-.6331 0-.8746l-4.6881-4.68811 4.6881-4.68808c.2415-.24152.2415-.6331 0-.87461-.2415-.24152-.6331-.24152-.8746 0z" fill="#1c8aa9" fill-rule="evenodd"/><path clip-rule="evenodd" d="m7.99609 7.62149-4.68808-4.68809c-.24152-.24152-.6331-.24152-.87461 0-.24152.24151-.24152.63309 0 .87461l4.68809 4.68808-4.68809 4.68811c-.24152.2415-.24152.6331 0 .8746.24151.2415.63309.2415.87461 0l4.68808-4.6881 4.68811 4.6881c.2415.2415.6331.2415.8746 0s.2415-.6331 0-.8746l-4.6881-4.68811 4.6881-4.68808c.2415-.24152.2415-.6331 0-.87461-.2415-.24152-.6331-.24152-.8746 0z" fill="#1c8aa9" fill-rule="evenodd"/><path d="m7.99609 7.62149-4.68808-4.68809c-.24152-.24152-.6331-.24152-.87461 0-.24152.24151-.24152.63309 0 .87461l4.68809 4.68808-4.68809 4.68811c-.24152.2415-.24152.6331 0 .8746.24151.2415.63309.2415.87461 0l4.68808-4.6881 4.68811 4.6881c.2415.2415.6331.2415.8746 0s.2415-.6331 0-.8746l-4.6881-4.68811 4.6881-4.68808c.2415-.24152.2415-.6331 0-.87461-.2415-.24152-.6331-.24152-.8746 0z" stroke="#1c8aa9" stroke-width=".5"/></svg>

<svg width="16" height="17" viewBox="0 0 16 17" fill="none" xmlns="http://www.w3.org/2000/svg">
<path fill-rule="evenodd" clip-rule="evenodd" d="M7.99609 7.62149L3.30801 2.9334C3.06649 2.69188 2.67491 2.69188 2.4334 2.9334V2.9334C2.19188 3.17491 2.19188 3.56649 2.4334 3.80801L7.12149 8.49609L2.4334 13.1842C2.19188 13.4257 2.19188 13.8173 2.4334 14.0588V14.0588C2.67491 14.3003 3.06649 14.3003 3.30801 14.0588L7.99609 9.3707L12.6842 14.0588C12.9257 14.3003 13.3173 14.3003 13.5588 14.0588V14.0588C13.8003 13.8173 13.8003 13.4257 13.5588 13.1842L8.8707 8.49609L13.5588 3.80801C13.8003 3.56649 13.8003 3.17491 13.5588 2.9334V2.9334C13.3173 2.69188 12.9257 2.69188 12.6842 2.9334L7.99609 7.62149Z" fill="#1C8AA9"/>
<path fill-rule="evenodd" clip-rule="evenodd" d="M7.99609 7.62149L3.30801 2.9334C3.06649 2.69188 2.67491 2.69188 2.4334 2.9334V2.9334C2.19188 3.17491 2.19188 3.56649 2.4334 3.80801L7.12149 8.49609L2.4334 13.1842C2.19188 13.4257 2.19188 13.8173 2.4334 14.0588V14.0588C2.67491 14.3003 3.06649 14.3003 3.30801 14.0588L7.99609 9.3707L12.6842 14.0588C12.9257 14.3003 13.3173 14.3003 13.5588 14.0588V14.0588C13.8003 13.8173 13.8003 13.4257 13.5588 13.1842L8.8707 8.49609L13.5588 3.80801C13.8003 3.56649 13.8003 3.17491 13.5588 2.9334V2.9334C13.3173 2.69188 12.9257 2.69188 12.6842 2.9334L7.99609 7.62149Z" fill="#1C8AA9"/>
<path d="M7.99609 7.62149L3.30801 2.9334C3.06649 2.69188 2.67491 2.69188 2.4334 2.9334V2.9334C2.19188 3.17491 2.19188 3.56649 2.4334 3.80801L7.12149 8.49609L2.4334 13.1842C2.19188 13.4257 2.19188 13.8173 2.4334 14.0588V14.0588C2.67491 14.3003 3.06649 14.3003 3.30801 14.0588L7.99609 9.3707L12.6842 14.0588C12.9257 14.3003 13.3173 14.3003 13.5588 14.0588V14.0588C13.8003 13.8173 13.8003 13.4257 13.5588 13.1842L8.8707 8.49609L13.5588 3.80801C13.8003 3.56649 13.8003 3.17491 13.5588 2.9334V2.9334C13.3173 2.69188 12.9257 2.69188 12.6842 2.9334L7.99609 7.62149Z" stroke="#1C8AA9" stroke-width="0.5"/>
</svg>
